packages/sources/icons/src/vitamix/arrow-go-forward-line.svg

<svg width="16" height="16" viewBox="0 0 16 16" fill="none" xmlns="http://www.w3.org/2000/svg">
<path d="M12.1147 4.66665H7.33333C5.12419 4.66665 3.33333 6.45751 3.33333 8.66665C3.33333 10.8758 5.12419 12.6666 7.33333 12.6666H13.3333V14H7.33333C4.38781 14 2 11.6122 2 8.66665C2 5.72113 4.38781 3.33332 7.33333 3.33332H12.1147L10.424 1.64265L11.3667 0.699982L14.6667 3.99998L11.3667 7.29998L10.424 6.35732L12.1147 4.66665Z" fill="#001018"/>
</svg>

<svg width="16" height="16" fill="none" xmlns="http://www.w3.org/2000/svg"><path d="M12.115 4.667H7.333a4 4 0 1 0 0 8h6V14h-6a5.333 5.333 0 1 1 0-10.667h4.782l-1.691-1.69.943-.943 3.3 3.3-3.3 3.3-.943-.943 1.69-1.69z" fill="#001018"/></svg>
